src/assets/icons/warning.svg

<svg width="16" height="16" viewBox="0 0 16 16" fill="none" xmlns="http://www.w3.org/2000/svg">
<g clip-path="url(#clip0_8874_15312)">
<path fill-rule="evenodd" clip-rule="evenodd" d="M7.46212 0.0158669C5.75937 0.131112 4.19139 0.764035 2.84549 1.8794C2.62517 2.06196 2.06341 2.62372 1.88085 2.84403C0.860439 4.07536 0.245965 5.48548 0.0591281 7.02465C-0.190529 9.08124 0.362731 11.1568 1.59742 12.7954C1.84631 13.1257 2.0146 13.3176 2.34852 13.6515C2.68243 13.9854 2.87425 14.1537 3.20456 14.4026C4.71326 15.5393 6.61893 16.1076 8.50676 15.9836C10.2345 15.8701 11.8013 15.2418 13.156 14.1191C13.3763 13.9366 13.938 13.3748 14.1206 13.1545C14.6904 12.4669 15.1066 11.7738 15.4247 10.983C16.4661 8.39322 16.0764 5.42273 14.404 3.2031C14.1551 2.87279 13.9869 2.68098 13.6529 2.34706C13.319 2.01314 13.1272 1.84486 12.7969 1.59597C11.2814 0.454071 9.36665 -0.11304 7.46212 0.0158669ZM7.62026 1.72517C6.32024 1.80334 5.09151 2.27808 4.05612 3.10227C3.84005 3.27427 3.27572 3.83859 3.10373 4.05467C2.3758 4.96914 1.91693 6.04177 1.76843 7.17599C1.60384 8.43298 1.81866 9.69315 2.39272 10.8383C2.69623 11.4438 3.04593 11.9222 3.56192 12.4379C4.28974 13.1652 5.05208 13.6393 6.00873 13.9594C7.60869 14.4948 9.31978 14.3691 10.8461 13.6041C11.4433 13.3048 11.925 12.9522 12.4393 12.4379C13.1663 11.7109 13.6407 10.9481 13.9609 9.99126C14.4962 8.39131 14.3706 6.68021 13.6056 5.15394C13.3064 4.55696 12.954 4.07542 12.4393 3.56046C11.7137 2.83441 10.9498 2.35941 9.99272 2.03913C9.42993 1.85082 8.96293 1.76171 8.3427 1.72429C8.03284 1.70561 7.94372 1.70571 7.62026 1.72517ZM7.77706 3.87564C7.49014 3.95055 7.24753 4.19612 7.17131 4.4888C7.13244 4.638 7.13306 8.33647 7.17197 8.48586C7.23508 8.72817 7.42356 8.9559 7.64165 9.0534C7.87432 9.15741 8.14875 9.15292 8.38451 9.04124C8.50209 8.98554 8.68539 8.80759 8.74995 8.68645C8.86031 8.47943 8.85566 8.57614 8.85566 6.48604C8.85566 4.42578 8.85874 4.49762 8.76221 4.30715C8.7044 4.19305 8.55499 4.03627 8.43563 3.96444C8.31438 3.89146 8.14806 3.84627 8.00073 3.84627C7.9396 3.84627 7.83894 3.85949 7.77706 3.87564ZM7.8188 9.90447C7.56671 9.95207 7.40928 10.0309 7.23161 10.1985C6.99917 10.4178 6.89072 10.6498 6.87692 10.9573C6.86702 11.178 6.89855 11.344 6.98247 11.513C7.30844 12.1696 8.1363 12.3588 8.70591 11.907C9.16107 11.5459 9.26618 10.8717 8.94177 10.394C8.85432 10.2652 8.67634 10.1014 8.54255 10.0266C8.33969 9.91317 8.04029 9.86265 7.8188 9.90447Z" fill="currentColor"/>
</g>
<defs>
<clipPath id="clip0_8874_15312">
<rect width="16" height="16" fill="white" transform="translate(0 -0.000732422)"/>
</clipPath>
</defs>
</svg>

<svg xmlns="http://www.w3.org/2000/svg" width="16" height="16" fill="none">
  <g clip-path="url(#a)">
    <path fill="currentColor" fill-rule="evenodd" d="M7.462.016C5.76.13 4.192.764 2.845 1.879c-.22.183-.782.745-.964.965C.86 4.075.246 5.485.059 7.024a8 8 0 0 0 1.538 5.771c.25.33.418.523.752.857.333.333.525.502.856.75a7.998 7.998 0 0 0 9.951-.283c.22-.182.782-.744.965-.964a8.002 8.002 0 0 0 .283-9.952 7.02 7.02 0 0 0-.751-.856 7.026 7.026 0 0 0-.856-.751A8.014 8.014 0 0 0 7.462.016Zm.158 1.71a6.299 6.299 0 0 0-3.564 1.376c-.216.172-.78.737-.952.953a6.32 6.32 0 0 0-1.336 3.121 6.3 6.3 0 0 0 .625 3.662 5.868 5.868 0 0 0 1.169 1.6 6.018 6.018 0 0 0 2.447 1.521c1.6.536 3.31.41 4.837-.355a5.88 5.88 0 0 0 1.593-1.166 6.015 6.015 0 0 0 1.522-2.447c.535-1.6.41-3.31-.355-4.837a5.885 5.885 0 0 0-1.167-1.594 6.014 6.014 0 0 0-2.446-1.52 5.945 5.945 0 0 0-1.65-.316 4.57 4.57 0 0 0-.723.001Zm.157 2.15a.874.874 0 0 0-.606.613c-.039.149-.038 3.847.001 3.997.063.242.252.47.47.567.232.104.507.1.743-.012.117-.055.3-.233.365-.355.11-.207.106-.11.106-2.2 0-2.06.003-1.988-.094-2.179a1.027 1.027 0 0 0-.326-.343A.89.89 0 0 0 8 3.846c-.061 0-.162.013-.224.03Zm.042 6.028c-.252.048-.41.127-.587.294a1.04 1.04 0 0 0-.355.76c-.01.22.022.386.105.555a1.13 1.13 0 0 0 1.724.394 1.14 1.14 0 0 0 .236-1.513 1.393 1.393 0 0 0-.4-.367 1.179 1.179 0 0 0-.723-.123Z" clip-rule="evenodd"/>
  </g>
  <defs>
    <clipPath id="a">
      <path fill="#fff" d="M0 0h16v16H0z"/>
    </clipPath>
  </defs>
</svg>
